X: 36926
T: Shorelines
R: waltz
M: 3/4
K: Eminor
M:4/4
Bd|e4- e3d|f3e d3B|dB/A/ B6-|B4- BcBG|
A2GE- E3B|A6 GF|E8-|E4 z2:|
zg/a/|b4-b3(3b/a/g/|f4 e/d/z z/a/g/f/|gf/e/e6-|e4 z3f/g/|
a8-|a4-ag f3/2a/|g2z2 f3/2e/ d(3a/f/g/|e4-ef/g/ ag|
f2eB- B4|ed/B/ (3B/A/B/A- A3G|FE-E6|z6||

